X: 35657
T: Sailor's
R: hornpipe
M: 4/4
K: Amajor
(cd)|ecea fagf|ecea fagf|efec dedB|cdcA B2cd|
ecea fagf|ecea fagf|gbge faf^d|e2g2e2:|
|:(cB)|ABcd efga|f2B2 B2(B^A)|Bc^de fgab|g2e2e2(cd)|
e2ag fedc|d2ba gfed|cecA BdBG|A2c2A2:|

